!!!COM: Olivier (Eugène Prosper Charles) Messiaen
!!!OTL: [T785_Mes-w26p19m2-10]
**kern	**dynam	**kern	**dynam	**kern	**dynam
*grp:A	*	*grp:B	*	*grp:B	*
*part2	*part2	*part1	*part1	*part1	*part1
*staff3	*	*staff2	*staff2	*staff1	*
*I"PÉD.	*	*I"[Organ] MAN.	*	*	*
*I'Péd.	*	*I'Man.	*	*	*
*clefF4	*	*clefG2	*	*clefG2	*
*k[]	*	*k[]	*	*k[]	*
*C:	*	*C:	*	*C:	*
=1	=1	=1	=1	=1	=1
!!LO:TX:B:t=[Bien modéré]
!	!	!LO:TX:b:t=15	!	!	!
!	!	!LO:TX:b:i:rj:t=m.g.	!	!	!
!	!	!LO:TX:rj:B:t=R	!	!	!
!	!	!LO:TX:a:t=laya	!LO:DY:b:i:t=%s legato	!	!
2r	.	[4gg#X	mf	4r	.
.	.	8gg#L_	.	8r	.
.	.	16.gg#L]	.	16r	.
!	!	!	!	!LO:TX:a:B:rj:t=Pos.	!
!	!	!	!	!LO:TX:a:i:t=legato	!
!	!	!	!	!LO:TX:a:t=rangapradipaka	!
!	!	!	!	!LO:TX:a:i:rj:t=m.dr.	!
.	.	.	.	[16an	f
!	!	!LO:TX:b:t=11	!	!	!
.	.	[32eee-XJJk	.	.	.
=2	=2	=2	=2	=2	=2
2r	.	4eee-X_	.	4a]	.
.	.	16eee-KL]	.	[4fn	.
!	!	!LO:TX:b:t=19	!	!	!
.	.	[8.ff#XJ	.	.	.
=3	=3	=3	=3	=3	=3
2r	.	4ff#X_	.	16fnXKL]	.
.	.	.	.	8.B-XJ	.
.	.	8ff#L]	.	[4ggn	.
.	.	32ff#LL	.	.	.
!	!	!LO:TX:b:t=19	!	!	!
.	.	[32bnJJJ	.	.	.
.	.	16b_	.	.	.
=4	=4	=4	=4	=4	=4
2r	.	2b]	.	16ggKL]	.
.	.	.	.	[8.cnJ	.
.	.	.	.	4c]	.
*	*	*clefF4	*	*	*
=5	=5	=5	=5	=5	=5
!	!	!LO:TX:b:t=19	!	!LO:TX:a:t=caccari	!
2r	.	[2DDn	.	(32a-XKLL	.
.	.	.	.	16aan)	.
.	.	.	.	(32eenJJk	.
.	.	.	.	16d#XLL)	.
.	.	.	.	(<32f#XL	.
.	.	.	.	[32cc#XJJJ	.
.	.	.	.	32cc#LLL])	.
.	.	.	.	(32ffnJ	.
.	.	.	.	16cccnJJ)	.
.	.	.	.	(32ee-XKLL	.
.	.	.	.	16bn)	.
.	.	.	.	(<32B-XJJk	.
!!linebreak:original
=6	=6	=6	=6	=6	=6
!	!	!LO:TX:a:B:rj:t=R	!	!LO:TX:a:B:rj:t=Pos.	!
2r	.	16.DDnXLL]	.	16a-XLL)	.
.	.	.	.	(32dd-XL	.
!	!	!LO:TX:b:t=15	!	!	!
.	.	[32F#XJJk	.	[32ggnJJJ	.
.	.	8F#_	.	32ggLLL])	.
.	.	.	.	(32eeenJ	.
.	.	.	.	16aanJJ)	.
!	!	!	!	!LO:TX:b:i:t=legato	!
!	!	!	!	!LO:TX:a:t=sama	!
.	.	4F#_	.	8fnL	.
.	.	.	.	8B-XJ	.
*	*	*	*	*clefF4	*
=7	=7	=7	=7	=7	=7
2r	.	16F#XKL]	.	[16GGnLL	.
!	!	!LO:TX:b:t=19	!	!	!
.	.	[8.AA-XJ	.	32GGL]	.
.	.	.	.	[32D-XJJJ	.
.	.	.	.	16D-LL]	.
!	!	!	!	!LO:TX:a:t=rangapradipaka	!
.	.	.	.	[16cnJJ	.
.	.	4AA-_	.	8.c]	.
.	.	.	.	32c	.
*	*	*	*	*clefG2	*
.	.	.	.	[32een	.
=8	=8	=8	=8	=8	=8
8r	.	8AA-X_	.	4eenX]	.
!LO:TX:b:i:t=leg.	!LO:DY:rj:t=più %s	!	!	!	!
[8F#X^^	f	32AA-KLL]	.	.	.
!	!	!LO:TX:b:t=9	!	!	!
.	.	[16.e-XJJ	.	.	.
!LO:TX:b:i:t=(mélodie principale)	!	!	!	!	!
4F#]	.	8.e-]	.	[8dddn	.
.	.	.	.	32dddLLL]	.
.	.	.	.	[32bbnJ	.
*	*	*clefG2	*	*	*
!	!	!LO:TX:b:t=9	!	!	!
.	.	[16b-X	.	16bbJJ_	.
=9	=9	=9	=9	=9	=9
16Cn^^<LL/	.	8b-X_	.	8.bbnXL]	.
16F#X^^J	.	.	.	.	.
!LO:TX:b:t=∪	!	!	!	!	!
8CnJ	.	16.b-LL]	.	.	.
.	.	.	.	[16ddnJk	.
!	!	!LO:TX:b:t=9	!	!	!
.	.	[32ggnJJk	.	.	.
8E-^^<XL	.	4gg]	.	4dd_	.
8B-X^^J	.	.	.	.	.
=	=	=	=	=	=
*-	*-	*-	*-	*-	*-
!!!system-decoration: [({(s1,s2)})]s3
!!!RDF**kern: < = below
!!!EED:Jason Lee
!!!EEV:2021/01/12
